app/src/main/assets/symbols/shopping/greengrocer.svg

﻿<?xml version="1.0" encoding="UTF-8" standalone="no"?>
<!-- Created with Inkscape (http://www.inkscape.org/) -->

<svg
   xmlns:dc="http://purl.org/dc/elements/1.1/"
   xmlns:cc="http://creativecommons.org/ns#"
   xmlns:rdf="http://www.w3.org/1999/02/22-rdf-syntax-ns#"
   xmlns:svg="http://www.w3.org/2000/svg"
   xmlns="http://www.w3.org/2000/svg"
   version="1.1"
   width="14"
   height="14"
   viewBox="0 0 14 14"
   id="svg2">
  <metadata
     id="metadata8">
    <rdf:RDF>
      <cc:Work
         rdf:about="">
        <dc:format>image/svg+xml</dc:format>
        <dc:type
           rdf:resource="http://purl.org/dc/dcmitype/StillImage" />
        <dc:title></dc:title>
      </cc:Work>
    </rdf:RDF>
  </metadata>
  <defs
     id="defs6" />
  <rect
     width="14"
     height="14"
     x="0"
     y="0"
     id="canvas"
     style="fill:none;stroke:none;visibility:hidden" />
  <path
     d="M 7.6811441,0.3845339 C 7.1074871,0.9581909 6.6438573,1.7807134 6.5,2.5 6.4213803,2.8930985 6.38606,3.8255659 6.375,4.281125 6.5830531,4.4032096 6.7911853,4.499514 7,4.656125 7.2211442,4.4902669 7.4360105,4.3770848 7.65625,4.249875 7.6737853,3.8551732 7.6944029,3.0279856 7.75,2.75 7.8561427,2.2192866 8.1298011,1.6858769 8.5561441,1.2595339 z M 0.5,1 C 1.0359156,3 3.3537505,4 5.5,3 4.5967177,1 3,0.36207008 0.5,1 z M 2,5.25 C 1.3855932,5.8940678 1,7 1,8 c 0,2 2,5.5 4,5.5 0.5635593,0 1,-0.25 2,-0.75 1,0.5 1.4364407,0.75 2,0.75 2,0 4,-3.5 4,-5.5 C 13,7 12.673729,5.8940678 12,5.25 10.977751,4.2727555 9,4.24975 7,5.74975 5,4.3360985 3,4.1445974 2,5.25 z"
     id="greengrocer"
     style="fill:#ac39ac;fill-opacity:1;stroke:none" />
</svg>

<?xml version="1.0" encoding="UTF-8"?>
<svg version="1.1" viewBox="0 0 14 14" xmlns="http://www.w3.org/2000/svg" xmlns:cc="http://creativecommons.org/ns#" xmlns:dc="http://purl.org/dc/elements/1.1/" xmlns:rdf="http://www.w3.org/1999/02/22-rdf-syntax-ns#">
<metadata>
<rdf:RDF>
<cc:Work rdf:about="">
<dc:format>image/svg+xml</dc:format>
<dc:type rdf:resource="http://purl.org/dc/dcmitype/StillImage"/>
<dc:title/>
</cc:Work>
</rdf:RDF>
</metadata>
<rect width="14" height="14" fill="none" visibility="hidden"/>
<path d="m7.6811 0.38453c-0.57366 0.57366-1.0373 1.3962-1.1811 2.1155-0.07862 0.3931-0.11394 1.3256-0.125 1.7811 0.20805 0.12208 0.41619 0.21839 0.625 0.375 0.22114-0.16586 0.43601-0.27904 0.65625-0.40625 0.017535-0.3947 0.038153-1.2219 0.09375-1.4999 0.10614-0.53071 0.3798-1.0641 0.80614-1.4905zm-7.1811 0.61547c0.53592 2 2.8538 3 5 2-0.90328-2-2.5-2.6379-5-2zm1.5 4.25c-0.61441 0.64407-1 1.75-1 2.75 0 2 2 5.5 4 5.5 0.56356 0 1-0.25 2-0.75 1 0.5 1.4364 0.75 2 0.75 2 0 4-3.5 4-5.5 0-1-0.32627-2.1059-1-2.75-1.0222-0.97724-3-1.0002-5 0.49975-2-1.4137-4-1.6052-5-0.49975z" fill="#ac39ac"/>
</svg>
